assets/svg/1F3B4.svg

<svg xmlns="http://www.w3.org/2000/svg" viewBox="0 0 64 64" enable-background="new 0 0 64 64"><g transform="translate(11.735-.271)" fill-rule="evenodd"><path d="m42.572 60.37c0 2.226-1.806 4.03-4.03 4.03h-34.506c-2.229 0-4.03-1.807-4.03-4.03v-56.34c0-2.227 1.804-4.03 4.03-4.03h34.506c2.228 0 4.03 1.806 4.03 4.03v56.34" fill="#25333a"/><path d="m9.627 60.37v-56.34c0-2.227 1.806-4.03 4.03-4.03h-9.627c-2.229 0-4.03 1.806-4.03 4.03v56.34c0 2.226 1.804 4.03 4.03 4.03h9.627c-2.227 0-4.03-1.807-4.03-4.03" fill="#31444d"/><path d="m40.02 31.23v-23.808c0-1.96-1.59-3.55-3.549-3.55h-30.362c-1.961 0-3.548 1.589-3.548 3.55v33.771c6.174-6.109 30.19-28.2 37.459-9.963" fill="#be1e2d"/><path d="m13.37 7.418c0-1.96 1.587-3.55 3.548-3.55h-10.856c-1.961 0-3.548 1.589-3.548 3.55v33.771c2.06-2.04 6.109-5.856 10.857-9.363v-24.408" fill="#a31d2d"/><circle cx="14.342" cy="15.697" r="11.829" fill="#fff"/></g></svg>

<?xml version="1.0" encoding="UTF-8" standalone="no"?>
<!-- Generator: Adobe Illustrator 16.0.0, SVG Export Plug-In . SVG Version: 6.00 Build 0)  -->

<svg
   xmlns:dc="http://purl.org/dc/elements/1.1/"
   xmlns:cc="http://creativecommons.org/ns#"
   xmlns:rdf="http://www.w3.org/1999/02/22-rdf-syntax-ns#"
   xmlns:svg="http://www.w3.org/2000/svg"
   xmlns="http://www.w3.org/2000/svg"
   xmlns:sodipodi="http://sodipodi.sourceforge.net/DTD/sodipodi-0.dtd"
   xmlns:inkscape="http://www.inkscape.org/namespaces/inkscape"
   version="1.1"
   id="Layer_1"
   x="0px"
   y="0px"
   width="64px"
   height="64px"
   viewBox="0 0 64 64"
   enable-background="new 0 0 64 64"
   xml:space="preserve"
   inkscape:version="0.48.5 r10040"
   sodipodi:docname="1F3B4.svg"><metadata
   id="metadata18678"><rdf:RDF><cc:Work
       rdf:about=""><dc:format>image/svg+xml</dc:format><dc:type
         rdf:resource="http://purl.org/dc/dcmitype/StillImage" /></cc:Work></rdf:RDF></metadata><defs
   id="defs18676" /><sodipodi:namedview
   pagecolor="#ffffff"
   bordercolor="#666666"
   borderopacity="1"
   objecttolerance="10"
   gridtolerance="10"
   guidetolerance="10"
   inkscape:pageopacity="0"
   inkscape:pageshadow="2"
   inkscape:window-width="1300"
   inkscape:window-height="896"
   id="namedview18674"
   showgrid="false"
   inkscape:zoom="11.078125"
   inkscape:cx="32"
   inkscape:cy="35.82636"
   inkscape:window-x="0"
   inkscape:window-y="0"
   inkscape:window-maximized="0"
   inkscape:current-layer="Layer_1" />
<g
   id="g18662"
   transform="translate(11.734838,-0.27080395)">
	<path
   clip-rule="evenodd"
   d="m 42.572,60.369 c 0,2.226 -1.806,4.033 -4.033,4.033 H 4.033 C 1.804,64.402 0,62.595 0,60.369 V 4.033 C 0,1.806 1.804,0 4.033,0 h 34.506 c 2.228,0 4.033,1.806 4.033,4.033 v 56.336 z"
   id="path18664"
   inkscape:connector-curvature="0"
   style="fill:#25333a;fill-rule:evenodd" />
	<path
   clip-rule="evenodd"
   d="M 9.627,60.369 V 4.033 C 9.627,1.806 11.433,0 13.66,0 H 4.033 C 1.804,0 0,1.806 0,4.033 v 56.336 c 0,2.226 1.804,4.033 4.033,4.033 h 9.627 c -2.227,0 -4.033,-1.807 -4.033,-4.033 z"
   id="path18666"
   inkscape:connector-curvature="0"
   style="fill:#31444d;fill-rule:evenodd" />
	<path
   clip-rule="evenodd"
   d="M 40.016,31.226 V 7.418 c 0,-1.96 -1.59,-3.55 -3.549,-3.55 H 6.105 c -1.961,0 -3.548,1.589 -3.548,3.55 v 33.771 c 6.174,-6.109 30.191,-28.2 37.459,-9.963 z"
   id="path18668"
   inkscape:connector-curvature="0"
   style="fill:#be1e2d;fill-rule:evenodd" />
	<path
   clip-rule="evenodd"
   d="m 13.37,7.418 c 0,-1.96 1.587,-3.55 3.548,-3.55 H 6.062 c -1.961,0 -3.548,1.589 -3.548,3.55 v 33.771 c 2.06,-2.04 6.109,-5.856 10.857,-9.363 V 7.418 z"
   id="path18670"
   inkscape:connector-curvature="0"
   style="fill:#a31d2d;fill-rule:evenodd" />
	<circle
   clip-rule="evenodd"
   cx="14.342"
   cy="15.697"
   r="11.829"
   id="circle18672"
   d="m 26.171,15.697 c 0,6.532976 -5.296023,11.829 -11.829,11.829 -6.5329766,0 -11.8290005,-5.296024 -11.8290005,-11.829 0,-6.532977 5.2960239,-11.8290009 11.8290005,-11.8290009 6.532977,0 11.829,5.2960239 11.829,11.8290009 z"
   sodipodi:cx="14.342"
   sodipodi:cy="15.697"
   sodipodi:rx="11.829"
   sodipodi:ry="11.829"
   style="fill:#ffffff;fill-rule:evenodd" />
</g>
</svg>
